!!!OTL: Stille Liebe.
!!!OTL-incipit: TREU GELIEBT UND STILL GESCHWIEGEN
!!!COM: Lindpaintner
!!!ARE: Europa, Mitteleuropa, Deutschland
!!!SCT: F0920
!!!TXL: @@DE
!!!YEM: Copyright 1995, estate of Helmut Schaffrath.
**kern	**text
*ICvox	*
*clefG2	*
*M4/4	*
*met(c)	*
*k[f#c#g#]	*
*A:	*
=1	=1
!LO:TX:a:t=Langſam und innig.	!
{4.e	1._Treu
8a	ge-
4cc#	-liebt
4cc#	und
=2	=2
8cc#qq	.
4.b	ſtill
8g#	geſchwiegen!
4a	.
4e}	.
=3	=3
{4.e	Treu-
8a	-e
4cc#	Lie-
4cc#	-be
=4	=4
!LO:TUP:a	!
(12b\L	ſpricht
12a#	.
12bJ)	.
!LO:TUP:a	!
(12ddL	nicht
12cc#J	.
12b)	.
2a}	viel;
=5	=5
{4.cc#	nur
8cc#	in
8cc#qq	.
4.b	un-
8b	-hör-
=6	=6
!LO:TUP:b	!
(12aL	-ba-
12g#	.
12aJ)	.
!LO:TUP:a	!
(12cc#L	-ren
12bJ	.
12a)	.
4a	Ʒü-
4g#}	-gen
=7	=7
{(8eL	wallt
8b	.
8aJ)	.
8g#	das
(8f#L	hei-
16b	.
16cc#J	.
16bL	.
16aJ)	.
(16g#L	-lig-
16f#J)	.
=8	=8
4.e	-ſte
16g#qq	.
8f#	Gefühl.
4e	.
4r}	.
=9	=9
{4.e	Oft
8f#	ſagt
4g#	ei-
4a	-ne
=10	=10
4.b	ſtil-
8cc#	-le
4a	Thrä-
4e}	-ne
=11	=11
{4.e	mehr
8f#	als
4g#	Sprach'
4a	und
=12	=12
(<12bL	Me-
12a#	.
12bJ	.
12ddL	.
12cc#J	.
12b)	-lo-
2a}	-die.
=13	=13
{4.cc#	Ach,
8a	der
4a	Lie-
4dd	-be
=14	=14
(4cc#	lei-
16ddqqL	.
16cc#qqJ	.
8b)	.
8a	-ſe
4ee	Tö-
4dd;}	-ne
=15	=15
{4.b	ſind
8b#	nur
!LO:TUP:a	!
(>12cc#L	Her-
12b	.
12aJ	.
16g#qqL	.
16aqq	.
16bqqJ	.
!LO:TUP:b	!
12aL	.
12g#J	.
12f#)	-ʒens-
=16	=16
4.e	-har-
8d	-mo-
4dqq	.
2c#}	-nie,
=17	=17
{(8bL	ſind
8cc#	.
8ddJ)	.
8dd#	nur
!LO:TUP:a	!
(12eeL	Her-
12cc#	.
12aJ	.
!LO:TUP:a	!
12f#\L	.
12ddJ	.
12b)	-ʒens-
=18	=18
4.a	-har-
8cc#qq	.
8b	-monie.
4a	.
4r;}	.
==	==
!!!AGN: Liebes - Lied
!!!ONB: ESAC (Essen Associative Code) Database: FINK
!!!AMT: simple quadruple
!!!AIN: vox
!!!EED: Helmut Schaffrath
!!!EEV: 1.0
!!!RDF**kern: > = above
!!!GTL: Minnelieder
!!!source: Musikalischer Hausschatz der Deutschen. Eine Sammlung von über 1000 Liedern und Gesängen mit Singstimmen und Klavierbegleitung. Leipzig, Litterarisches Verlags-Haus.
!!!page: 682
!!!URL-scan: https://www.digitale-sammlungen.de/en/view/bsb11144622?page=592
!!!ENC: Anna Maria Matuszewska
!!!EEV: 2024/08/07
*-	*-